**kern	**kern
*staff2	*staff1
*clefF4	*clefG2
*k[]	*k[]
*M2/4	*M2/4
*C:	*C:
=	=
*^	*
8r	2C	16eeLL
.	.	16cc
8c	.	16b
.	.	16ccJJ
8EL	.	16ddLL
.	.	16cc
8cJ	.	16b
.	.	16ccJJ
=323	=323	=323
8AL	2C	16ffLL
.	.	16cc
8cJ	.	16b
.	.	16ccJJ
8GL	.	16eeLL
.	.	16cc
8cJ	.	16b
.	.	16ccJJ
=324	=324	=324
8GL	2C	16eeLL
.	.	16cc
8cJ	.	16b
.	.	16ccJJ
8FL	.	16ddLL
.	.	16b
8cJ	.	16a
.	.	16bJJ
=325	=325	=325
8EL	2C	16ccLL
.	.	16g
8cJ	.	16f#
.	.	16gJJ
8GL	.	16aLL
.	.	16g
8cJ	.	16f#
.	.	16gJJ
*v	*v	*
=326	=326
8BBL	16dLL
.	16g
8BJ	16dd
.	16gJJ
8CL	16eLL
.	16g
8cJ	16ee
.	16gJJ
=327	=327
8AAL	16fLL
.	16cc
8AJ	16ff
.	16ccJJ
8FFL	16gLL
.	16dd
8FJ	16ff
.	16ddJJ
=328	=328
8GGL	16fLL
.	16cc
8GJ	16dd
.	16ccJJ
8GGGL	16fLL
.	16b
8GGJ	16dd
.	16bJJ
=329	=329
2r;	2r;
=330	=330
*-	*-
